X:91
T:Fabe O'Reilly
R:reel
C:Paul S. Cranford
O:Cape Breton Island
S:http://www.cranfordpub.com
D:currently unrecorded
B:currently unpublished in book form
Z:psc, (updated 4/2/06)
N:
H:                                                        copyrights Cranford Publications, SOCAN
L:1/8
Q:333
M:C|
K:G
Bc|d(B ~B2) A(G ~G2)|ABGE D(B, ~B,2)|G,(B, ~B,2) DEGA|Bbag e(g ~g2)|
d(B ~B2) A(G ~G2)|ABGE D(B, ~B,2)|G,(B, ~B,2) DEGB|AGBA G2:|
|:Bc|d(g ~g2) a(g ~g2)|abag e(g ~g2)|B(d ~d2) edgd|(3(Bcd) BG AEcA|
[1B(d ~d2) edgd|Bbag e(g ~g2)|d(B ~B2) ABGE|DGBA G2:|
[2BA (3(Bcd) edgd|abag edge|d(B ~B2) (e/f/g) dB|AGBA G2|]
